X:50
T: Csütörtökön hajnalba, hajnalba...
K: F
M: 4/4
L: 1/4
g2 b/a/ g | f f f2 | 
c/d/e/f/ g/a/ g | d d d2 | 
gcff | BBB2 | 
F/G/A/B/ c/d/c | G G G2 | 

